X:1
T:Title
%%score { 1 | 2 }
L:1/8
M:6/4
K:F
V:1 treble nm="Grand Piano"
V:2 bass 
V:1
 z6 z4[Q:1/4=126] F2 | A4 c2 F4 [EG]2 | [FA]4 [CF]2 D4 F2 | C4 F2 A4 B2 | c4 A2 [EG]6 | %5
[M:1/4] [Ec]2 |[M:6/4] A4 c2 F4 [CEG]2 | [CFA]4[K:bass] [F,CF]2 [F,D]4 [F,DF]2 | %8
 [F,C]4[K:treble] [A,CF]2 [CFA]4 [Fc]2 |[M:5/4] [EG]6 F4 |[M:1/4] A2 |[M:6/4] c4 d2 c4 A2 | %12
 c4 d2 c6 | [Ec]2 [GB]2 [FA]2 [EG]2 [FA]2 [GB]2 |[M:5/4] [Ed]4 [Ec]2 [Fc]4 |[M:1/4] [Ec]2 | %16
[M:6/4] A4 c2 F4 [CEG]2 | [CFA]4[K:bass] [F,CF]2 [F,D]4 [F,DF]2 | %18
 [F,C]4[K:treble] [A,CF]2 [CFA]4 [Fc]2 |[M:9/4] [EG]6 .F6 z6 |] %20
V:2
 z6 z4 [F,A,C]2 | [F,CF]4 [F,A,F]2 [F,A,C]4 [C,C]2 | [F,C]4 [A,,F,]2 [B,,F,]4 [D,B,D]2 | %3
 [F,A,]4 [F,A,C]2[K:treble] [F,CF]4 [G,CE]2 | [A,CF]4[K:bass] [F,CF]2 [C,C]6 |[M:1/4] [C,C]2 | %6
[M:6/4] [F,CF]4 [F,A,F]2 [F,A,C]4 C,2 | F,4 A,,2 B,,4 B,,2 | C,4 C,2 C,4 [C,A,]2 | %9
[M:5/4] [C,B,]6 [F,A,]4 |[M:1/4] [F,CF]2 |[M:6/4] [F,A,F]4 [F,B,F]2 [F,A,F]4 [F,CF]2 | %12
 [F,A,F]4 [F,B,F]2 [F,A,F]6 | [C,G,]2 [C,C]2 [C,C]2 [C,C]4 [C,C]2 | %14
[M:5/4] [C,B,]4 [C,B,]2 [F,A,]4 |[M:1/4] [C,C]2 |[M:6/4] [F,CF]4 [F,A,F]2 [F,A,C]4 C,2 | %17
 F,4 A,,2 B,,4 B,,2 | C,4 C,2 C,4 [C,A,]2 |[M:9/4] [C,B,]6 .[F,A,]6 z6 |] %20

